!!!COA:	Josquin des Prez
!!!CDT:	~1450-1521/08/27
!!!OPR:	Missa Allez regretz I
!!!ONM:	5
!!!OTL:	Agnus Dei
!!!AGN:	Mass; Agnus Dei
!!!SCT:	NJE 7.1
!!!SCA:	New Josquin Edition 7.1
!!!voices:	4
!!!voices-OPR:	4
**kern	**kern	**kern	**kern
*staff4	*staff3	*staff2	*staff1
*Ivox	*Ivox	*Ivox	*Ivox
*I"Bassus	*I"Tenor	*I"Altus	*I"Superius
*I'B	*I'T	*I'A	*I'S
*>[A,B]	*>[A,B]	*>[A,B]	*>[A,B]
*>A	*>A	*>A	*>A
*clefF4	*clefGv2	*clefGv2	*clefG2
*k[b-]	*k[b-]	*k[b-]	*k[b-]
*M2/1	*M2/1	*M2/1	*M2/1
*met(C)	*met(C)	*met(C)	*met(C)
=1-	=1-	=1-	=1-
!	!LO:TX:Z=24:t=Egrediens per dyatesseron calcem duplando, Regredictur ocius...repetendo 	!	!
!	!LO:TX:Z=4:t=[Altus sings notated tenor part up a fourth]	!	!
2.FF/	1.C	1.F	1.f
4GG/	.	.	.
2AA/	.	.	.
2BB-/	2D/	2G/	4e/
.	.	.	4d/
=2	=2	=2	=2
1C	2E/	2A/	2c/
.	1G	1c	2e/
1D	.	.	2d/
.	2F/	2B-\	[2f/
=3	=3	=3	=3
1C	1G	1c	4f/]
.	.	.	4e/
.	.	.	2e/
2D\	[1F	[1B-	1f
2BB-/	.	.	.
=4	=4	=4	=4
2D\	2F/]	2B-\]	1r
2E\	2G/	2c\	.
2F\	2A/	2d\	1f
2A\	[2c\	[2f\	.
=5	=5	=5	=5
1G	2c\]	2f\]	1g
.	2B-\	2e\	.
1F	1c	1f	2a/
.	.	.	[2cc\
=6	=6	=6	=6
1A	0r	0r	4cc\]
.	.	.	4b-\
.	.	.	1a
1B-	.	.	.
.	.	.	2g/
=7	=7	=7	=7
1A	1r	1r	1.a
[1AA	[1C	[1F	.
.	.	.	[2cc\
=8	=8	=8	=8
2AA/]	2C/]	2F/]	2cc\]
2BB-/	2D/	2G/	2b-\
2.C/	2E/	2A/	2a/
.	[2G/	[2c\	2g/
4BB-/	.	.	.
=9	=9	=9	=9
2C/	2G/]	2c\]	2e/
2D\	2F/	2B-\	1f
1C	1G	1c	.
.	.	.	2e/
=10	=10	=10	=10
1D	[0F	[0B-	0f
[1BB-	.	.	.
=11	=11	=11	=11
1BB-]	0F]	0B-]	2r
.	.	.	1f
1D	.	.	.
.	.	.	4e/
.	.	.	4d/
=12	=12	=12	=12
1C	1G	1c	1e
2D\	2F/	2B-\	2f/
[2C/	[2G/	[2c\	[2e/
=13	=13	=13	=13
1C]	2G/]	2c\]	2e/]
.	2E/	2A/	2c/
2BB-/	2D/	2G/	2g/
[2AA/	[2C/	[2F/	[2a/
=14	=14	=14	=14
2AA/]	1C]	1F]	1.a]
2FF/	.	.	.
2F\	1r	1r	.
2G\	.	.	2b-\
=15	=15	=15	=15
2A\	0r	0r	2a/
1F	.	.	2d/
.	.	.	2f/
2E\	.	.	2g/
=16	=16	=16	=16
1F	1c	1f	1a
2G\	2B-\	2e\	2g/
[2F\	[2c\	[2f\	2a/
=17	=17	=17	=17
1F]	2c\]	2f\]	1f
.	2A/	2d\	.
2E\	2G/	2c\	2r
2D\	[2F/	[2B-\	[2f/
=18	=18	=18	=18
2BB-/	1F]	1B-]	2f/]
2D\	.	.	2d/
1C	1G	1c	2e/
.	.	.	2e/
=19	=19	=19	=19
2D\	2F/	2B-\	2f/
2.C/	1G	1c	2.e/
4BB-/	.	.	4d/
2C/	2E/	2A/	2c/
=20	=20	=20	=20
2GG/	2D/	2G/	2B-/
1AA	1.C	1.F	1c
2FF/	.	.	[2cc\
=21	=21	=21	=21
1FF	1.C	1.F	4cc\]
.	.	.	4b-\
.	.	.	1a
2AA/	.	.	.
2BB-/	2D/	2G/	4g/
.	.	.	4f/
=22	=22	=22	=22
1C	2E/	2A/	1e
.	1G	1c	.
1D	.	.	2r
.	2F/	2B-\	[2f/
=23	=23	=23	=23
1C	1G	1c	4f/]
.	.	.	4d/
.	.	.	2e/
2D\	[1F	[1B-	2f/
2BB-/	.	.	[2b-\
=24	=24	=24	=24
2D\	2F/]	2B-\]	4b-\]
.	.	.	4a/
2E\	2G/	2c\	2g/
2.F\	2A/	2d\	2f/
.	[2c\	[2f\	[2a/
4E\	.	.	.
=25	=25	=25	=25
2F\	2c\]	2f\]	2a/]
2G\	2B-\	2e\	2g/
1F	1c	1f	1a
=26	=26	=26	=26
2C/	0r	0r	2g/
1F	.	.	2.a/
.	.	.	4f/
2E\	.	.	2g/
=27	=27	=27	=27
1F	1r	1r	2c/
.	.	.	4f/
.	.	.	4g/
1FF	[1C	[1F	4a/
.	.	.	4b-\
.	.	.	[2cc\
=28	=28	=28	=28
2AA/	2C/]	2F/]	2cc\]
2BB-/	2D/	2G/	2b-\
1C	2E/	2A/	2a/
.	[2G/	[2c\	2g/
=29	=29	=29	=29
2C/	2G/]	2c\]	2e/
2D\	2F/	2B-\	1f
1C	1G	[1cl	.
.	.	.	2e/
=30	=30	=30	=30
0FFl	0Fl	0c]	0fl
!!LO:LB:i:g=z
=31||	=31||	=31||	=31||
*>B	*>B	*>B	*>B
*clefF4	*clefGv2	*clefGv2	*clefG2
*k[b-]	*k[b-]	*k[b-]	*k[b-]
*M2/1	*M2/1	*M2/1	*M2/1
*met(C|)	*met(C|)	*met(C|)	*met(C|)
!!section: Agnus Dei II
!!!OMD: Agnus Dei II
!LO:TX:Z=15:t=Canon&colon; Occinet per tropum Munita quoque vitando	!	!LO:TX:Z=15:t=Canon&colon; Occinet per tropum Munita quoque vitando	!
0F	0c	0F	[0f
=32	=32	=32	=32
1F	1A	1F	0f]
1D	1F	1A	.
=33	=33	=33	=33
2C/	1.G	0c	1e-i
2E-\	.	.	.
2E-i\	.	.	1c
4D\	2A/	.	.
4C/	.	.	.
=34	=34	=34	=34
0BB-	0B-	0f	0d
=35	=35	=35	=35
0FF	[0A	0r	2c/
.	.	.	2.cc\
.	.	.	4b-\
.	.	.	[2a/
=36	=36	=36	=36
0r	0A_	[0F	4a/]
.	.	.	4g/
.	.	.	2.f/
.	.	.	4e/
.	.	.	2d/
=37	=37	=37	=37
[0F	0A]	1F]	2c/
.	.	.	2.d/
.	.	1A	.
.	.	.	4e/
.	.	.	2f/
=38	=38	=38	=38
1F]	1D	0B-	2d/
.	.	.	1f
1D	1F	.	.
.	.	.	4e/
.	.	.	4d/
=39	=39	=39	=39
0C	1.G	0c	0e
.	4F/	.	.
.	4E/	.	.
=40	=40	=40	=40
0BB-	1D	0F	1f
.	[1d	.	2d/
.	.	.	[2f/
=41	=41	=41	=41
2F\	0d]	1A	4f/]
.	.	.	4e/
2.D\	.	.	4f/
.	.	.	4g/
.	.	1B-	[1a
4C/	.	.	.
4D\	.	.	.
4E\	.	.	.
=42	=42	=42	=42
0F	1c	0A	1a]
.	2d\	.	[1f
.	[2c\	.	.
=43	=43	=43	=43
1D	2c\]	0r	1f]
.	2B-\	.	.
1C	1c	.	1e
=44	=44	=44	=44
0D	1A	0r	2f/
.	.	.	2a/
.	1F	.	2b-\
.	.	.	2a/
=45	=45	=45	=45
0r	0G	0r	4g/
.	.	.	4f/
.	.	.	4e/
.	.	.	4d/
.	.	.	1e
=46	=46	=46	=46
0r	0F	0c	1f
.	.	.	2r
.	.	.	[2a/
=47	=47	=47	=47
0r	0c	0A	4a/]
.	.	.	4g/
.	.	.	1e
.	.	.	[2f/
=48	=48	=48	=48
0BB-	[0F	0B-	2f/]
.	.	.	2d/
.	.	.	2f/
.	.	.	2d/
=49	=49	=49	=49
0D	0F]	0A	1.f
.	.	.	2g/
=50	=50	=50	=50
0C	0G	0c	0e
=51	=51	=51	=51
0D	1F	0F	1f
.	[1f	.	[1d
=52	=52	=52	=52
0BB-	2f\]	0r	2d/]
.	2e\	.	2c/
.	1d	.	1B-
=53	=53	=53	=53
0F	1c	0r	1A
.	2c\	.	2r
.	[2c\	.	[2A/
=54	=54	=54	=54
0r	4c\]	0F	4A/]
.	4B-\	.	4B-/
.	4A/	.	2c/
.	4G/	.	.
.	2F/	.	2d/
.	[2f\	.	[2c/
=55	=55	=55	=55
0r	4f\]	1F	2c/]
.	4e\	.	.
.	1d	.	1f
.	.	1A	.
.	4c\	.	2e/
.	4B-\	.	.
=56	=56	=56	=56
0F	[0A	0c	[0f
=57	=57	=57	=57
1F	1A]	1c	0f]
1D	1F	1B-	.
=58	=58	=58	=58
2C/	1.G	0c	0r
2E-\	.	.	.
2E-i\	.	.	.
4D\	2A/	.	.
4C/	.	.	.
=59	=59	=59	=59
0BB-	2.B-\	0r	[0d
.	4A/	.	.
.	2F/	.	.
.	2G/	.	.
=60	=60	=60	=60
1BB-	2F/	0r	1d]
.	1G	.	.
1C	.	.	1e
.	4F/	.	.
.	4E/	.	.
=61	=61	=61	=61
0BB-	1D	0F	1.f
.	2r	.	.
.	2D/	.	4e/
.	.	.	4d/
=62	=62	=62	=62
0r	2F/	1F	1c
.	2A/	.	.
.	1G	1E	1g
=63	=63	=63	=63
0r	1.A	0F	2c/
.	.	.	2.cc\
.	.	.	4b-\
.	[2F/	.	[2a/
=64	=64	=64	=64
[0F	2F/]	0A	4a/]
.	.	.	4g/
.	2D/	.	2.f/
.	[1D	.	.
.	.	.	4g/
.	.	.	2a/
=65	=65	=65	=65
1F]	1D]	0B-	1d
1G	1r	.	2r
.	.	.	[2d/
=66	=66	=66	=66
0F	0A	0d	2d/]
.	.	.	1c
.	.	.	[2d/
=67	=67	=67	=67
0D	0F	0B-	4d/]
.	.	.	4e/
.	.	.	2f/
.	.	.	2d/
.	.	.	[2f/
=68	=68	=68	=68
0C	0G	0c	2f/]
.	.	.	4e/
.	.	.	4d/
.	.	.	1e
=69	=69	=69	=69
0FF	0F	[0A	1.f
.	.	.	4e/
.	.	.	4d/
=70	=70	=70	=70
0C	0E	0A]	1c
.	.	.	2r
.	.	.	2c/
=71	=71	=71	=71
0BB-	0F	0B-	2.d/
.	.	.	4e/
.	.	.	2f/
.	.	.	2d/
=72	=72	=72	=72
2C/	2r	0A	2e/
2.D\	1F	.	2f/
.	.	.	2d/
4C/	.	.	.
2C/	2E/	.	2e/
=73	=73	=73	=73
[0D	0F	[0F	2A/
.	.	.	1a
.	.	.	2f/
=74	=74	=74	=74
0D]	1A	0F]	2d/
.	.	.	2.f/
.	1B-	.	.
.	.	.	4e/
.	.	.	4f/
.	.	.	4g/
=75	=75	=75	=75
0C	0c	0r	1e
.	.	.	2r
.	.	.	[2A/
=76	=76	=76	=76
0D	2r	0r	2A/]
.	2F/	.	2B-/
.	2A/	.	2A/
.	2B-\	.	2d/
=77	=77	=77	=77
[0F	2A/	0F	2c/
.	2d\	.	2.f/
.	2c\	.	.
.	.	.	4g/
.	[2f\	.	[2a/
=78	=78	=78	=78
0F]	2f\]	0A	4a/]
.	.	.	4b-\
.	1F	.	1cc
.	[2c\	.	[2f/
=79	=79	=79	=79
0r	2c\]	1A	4f/]
.	.	.	4g/
.	2F/	.	1a
.	1G	1B-	.
.	.	.	2g/
=80	=80	=80	=80
0r	[0D	[0Al	[0a
=81	=81	=81	=81
0F	0D]	0A_	0a_
=82	=82	=82	=82
0D	1.F	0A_	0a]
.	2G/	.	.
=83	=83	=83	=83
1D	2A/	0A_	1f
.	2F/	.	.
1C	1c	.	1e
=84	=84	=84	=84
0D	1.F	0A_	0f
.	4E/	.	.
.	4D/	.	.
=85	=85	=85	=85
[0AA	2.C/	0A_	1e
.	4D/	.	.
.	2E/	.	2r
.	2F/	.	[2c/
=86	=86	=86	=86
0AA]	1E	0A_	4c/]
.	.	.	4d/
.	.	.	2e/
.	2r	.	2f/
.	2C/	.	2e/
=87	=87	=87	=87
2r	2D/	0A_	1f
2.FF/	1F	.	.
.	.	.	[1c
4GG/	.	.	.
2AA/	2E/	.	.
=88	=88	=88	=88
2FF/	2F/	0A_	0c]
2.AA/	2E/	.	.
.	2F/	.	.
4BB-/	.	.	.
2C/	2E/	.	.
=89	=89	=89	=89
0FFl	0Fl	0A]	0cl
==	==	==	==
*-	*-	*-	*-
!!!RDF**kern: l=long note in original notation
!!!RDF**kern: i=editorial accidental
!!!RDF**kern: V=start of tuplet marker
!!!RDF**kern: Z=end of tuplet marker
!!!ENC:	Jesse Rodin; Victoria Chang 2012/02/27
!!!END:	2012/02/27/
!!!EED:	Jesse Rodin
!!!EEV:	2012/06/27/
!!attribution-level@Jos: 4 (questionable)
!!!ONB:	Translated from MusicXML and edited on 2012/06/27/ by Craig Sapp
!!muse2ps: T^@{OPR}^u^@{ONM}{. }@{OTL}^C^@{COA}?\n@{SCT}^i2I150v95,95,95,150Q16
